apps/scalable/lock.svg

<svg xmlns="http://www.w3.org/2000/svg" style="isolation:isolate" width="256" height="256"><path fill="#C8B9B7" d="M165.685 11.947c74.055 0 84.639 10.557 84.639 84.544v59.251c0 73.986-10.584 84.543-84.639 84.543h-75.37c-74.055 0-84.639-10.557-84.639-84.543V96.491c0-73.987 10.584-84.544 84.639-84.544h75.37z"/><g opacity=".4"><linearGradient id="a" x1=".517" x2=".517" y2="1"><stop offset="0%" stop-color="#fff"/><stop offset="12.5%" stop-opacity=".098" stop-color="#fff"/><stop offset="92.5%" stop-opacity=".098"/><stop offset="100%" stop-opacity=".498"/></linearGradient><path fill="none" stroke="url(#a)" stroke-linecap="round" stroke-linejoin="round" stroke-width="4.077" d="M165.685 11.947c74.055 0 84.639 10.557 84.639 84.544v59.251c0 73.986-10.584 84.543-84.639 84.543h-75.37c-74.055 0-84.639-10.557-84.639-84.543V96.491c0-73.987 10.584-84.544 84.639-84.544h75.37z" vector-effect="non-scaling-stroke"/></g><path fill="#FFF" d="M5.676 126.116v29.626c0 73.986 10.584 84.543 84.639 84.543h75.37c74.055 0 84.639-10.557 84.639-84.543v-29.626H5.676z" opacity=".1"/><defs><filter id="b" width="172.266" height="172.266" x="41.87" y="41.33" filterUnits="userSpaceOnUse"><feGaussianBlur xmlns="http://www.w3.org/2000/svg" stdDeviation="1.76"/></filter></defs><circle fill-opacity=".996" r="1" transform="matrix(0 -82.034 -82.034 0 128 127.466)" vector-effect="non-scaling-stroke" opacity=".1" filter="url(#b)"/><defs><filter id="c" width="229.654" height="229.654" x="13.17" y="12.64" filterUnits="userSpaceOnUse"><feGaussianBlur xmlns="http://www.w3.org/2000/svg" stdDeviation="14.08"/></filter></defs><g opacity=".4" filter="url(#c)"><linearGradient id="d" x2="1" y1=".5" y2=".5" gradientTransform="matrix(2 0 0 2 -1 -1)" gradientUnits="userSpaceOnUse"><stop offset="0%" stop-opacity="0"/><stop offset="49.903%"/><stop offset="100%" stop-opacity="0"/></linearGradient><circle fill="url(#d)" r="1" transform="matrix(0 -82.034 -82.034 0 128 127.466)" vector-effect="non-scaling-stroke"/></g><circle fill="#F7F7F7" r="1" transform="matrix(0 -82.034 -82.034 0 128 126.534)" vector-effect="non-scaling-stroke"/><circle fill="#FFF" r="1" transform="matrix(0 -74.576 -74.576 0 128 127.466)" vector-effect="non-scaling-stroke"/><circle fill="#813352" r="1" transform="matrix(0 -74.576 -74.576 0 128 126.534)" vector-effect="non-scaling-stroke"/><path fill="#FFF" d="M128 44.5c-45.306 0-82.034 36.728-82.034 82.034.012.258.024.516.038.774.597-44.865 37.127-80.927 81.996-80.944 44.991.019 81.571 36.272 81.996 81.261.015-.364.028-.727.038-1.091 0-45.306-36.728-82.034-82.034-82.034z"/><path fill="#FFF" class="ColorScheme-Text" d="M107.995 100.814c-14.204 0-25.72 11.515-25.72 25.72 0 14.205 11.516 25.72 25.72 25.72a25.723 25.723 0 0 0 24.214-17.147l18.653-.02v11.431h17.147v-11.454l5.716.021v-17.147l-41.516.021a25.72 25.72 0 0 0-24.214-17.145zm0 17.147a8.574 8.574 0 1 1 .001 17.147 8.574 8.574 0 0 1-.001-17.147z"/></svg>

<svg xmlns="http://www.w3.org/2000/svg" style="isolation:isolate" width="256" height="256" viewBox="0 0 256 256">
 <path fill="#C8B9B7" d="M 165.685 11.947 C 239.74 11.947 250.324 22.504 250.324 96.491 L 250.324 155.742 C 250.324 229.728 239.74 240.285 165.685 240.285 L 90.315 240.285 C 16.26 240.285 5.676 229.728 5.676 155.742 L 5.676 96.491 C 5.676 22.504 16.26 11.947 90.315 11.947 L 165.685 11.947 Z"/>
 <g opacity=".4">
  <linearGradient id="_lgradient_23" x1=".517" x2=".517" y1="0" y2="1">
   <stop offset="0%" style="stop-color:rgb(255,255,255)"/>
   <stop offset="12.5%" stop-opacity=".098" style="stop-color:rgb(255,255,255)"/>
   <stop offset="92.5%" stop-opacity=".098" style="stop-color:rgb(0,0,0)"/>
   <stop offset="100%" stop-opacity=".498" style="stop-color:rgb(0,0,0)"/>
  </linearGradient>
  <path fill="none" stroke="url(#_lgradient_23)" stroke-linecap="round" stroke-linejoin="round" stroke-width="4.077" d="M 165.685 11.947 C 239.74 11.947 250.324 22.504 250.324 96.491 L 250.324 155.742 C 250.324 229.728 239.74 240.285 165.685 240.285 L 90.315 240.285 C 16.26 240.285 5.676 229.728 5.676 155.742 L 5.676 96.491 C 5.676 22.504 16.26 11.947 90.315 11.947 L 165.685 11.947 Z" vector-effect="non-scaling-stroke"/>
 </g>
 <g opacity=".1">
  <path fill="#FFFFFF" d="M 5.676 126.116 L 5.676 155.742 C 5.676 229.728 16.26 240.285 90.315 240.285 L 165.685 240.285 C 239.74 240.285 250.324 229.728 250.324 155.742 L 250.324 126.116 L 5.676 126.116 Z"/>
 </g>
 <g>
  <defs>
   <filter id="hVNX475JBn151KFzmVxNL3jPT2uLUOJE" width="172.266" height="172.266" x="41.87" y="41.33" filterUnits="userSpaceOnUse">
    <feGaussianBlur xmlns="http://www.w3.org/2000/svg" stdDeviation="1.76"/>
   </filter>
  </defs>
  <g opacity=".1" filter="url(#hVNX475JBn151KFzmVxNL3jPT2uLUOJE)">
   <circle fill-opacity=".996" cx="0" cy="0" r="1" transform="matrix(0,-82.034,-82.034,0,128,127.466)" vector-effect="non-scaling-stroke"/>
  </g>
  <defs>
   <filter id="I4P90xNuBuuqH0daIYugsvThAtGvkLOw" width="229.654" height="229.654" x="13.17" y="12.64" filterUnits="userSpaceOnUse">
    <feGaussianBlur xmlns="http://www.w3.org/2000/svg" stdDeviation="14.08"/>
   </filter>
  </defs>
  <g opacity=".4" filter="url(#I4P90xNuBuuqH0daIYugsvThAtGvkLOw)">
   <linearGradient id="_lgradient_24" x1="0" x2="1" y1=".5" y2=".5" gradientTransform="matrix(2,0,0,2,-1,-1)" gradientUnits="userSpaceOnUse">
    <stop offset="0%" stop-opacity="0" style="stop-color:rgb(0,0,0)"/>
    <stop offset="49.903%" style="stop-color:rgb(0,0,0)"/>
    <stop offset="100%" stop-opacity="0" style="stop-color:rgb(0,0,0)"/>
   </linearGradient>
   <circle fill="url(#_lgradient_24)" cx="0" cy="0" r="1" transform="matrix(0,-82.034,-82.034,0,128,127.466)" vector-effect="non-scaling-stroke"/>
  </g>
  <circle fill="#F7F7F7" cx="0" cy="0" r="1" transform="matrix(0,-82.034,-82.034,0,128,126.534)" vector-effect="non-scaling-stroke"/>
  <circle fill="#FFFFFF" cx="0" cy="0" r="1" transform="matrix(0,-74.576,-74.576,0,128,127.466)" vector-effect="non-scaling-stroke"/>
  <circle fill="#813352" cx="0" cy="0" r="1" transform="matrix(0,-74.576,-74.576,0,128,126.534)" vector-effect="non-scaling-stroke"/>
  <path fill="#FFFFFF" d="M 128 44.5 C 82.694 44.5 45.966 81.228 45.966 126.534 C 45.978 126.792 45.99 127.05 46.004 127.308 C 46.601 82.443 83.131 46.381 128 46.364 C 172.991 46.383 209.571 82.636 209.996 127.625 C 210.011 127.261 210.024 126.898 210.034 126.534 C 210.034 81.228 173.306 44.5 128 44.5 L 128 44.5 Z"/>
  <path fill="#FFFFFF" class="ColorScheme-Text" d="M 107.995 100.814 C 93.791 100.814 82.275 112.329 82.275 126.534 C 82.275 140.739 93.791 152.254 107.995 152.254 C 118.882 152.237 128.58 145.371 132.209 135.107 L 150.862 135.087 L 150.862 146.518 L 168.009 146.518 L 168.009 135.064 L 173.725 135.085 L 173.725 117.938 L 132.209 117.959 C 128.58 107.696 118.882 100.829 107.995 100.814 L 107.995 100.814 Z M 107.995 117.961 C 112.73 117.961 116.569 121.799 116.569 126.534 C 116.569 131.269 112.73 135.107 107.995 135.107 C 103.261 135.107 99.422 131.269 99.422 126.534 C 99.422 121.799 103.261 117.961 107.995 117.961 Z"/>
 </g>
</svg>
